vl/flatio-icon.svg

<svg version="1.1" xmlns="http://www.w3.org/2000/svg" x="0" y="0" viewBox="0 0 64 64" width="64" height="64" style="enable-background:new 0 0 64 64">
  <path d="M22.8.6c-1.5-1-3.6-.6-4.6.9 0 0 0 .1-.1.1L2.8 25.8c-1 1.6-.6 3.7 1 4.8 1.5 1 3.6.6 4.6-1l.1-.1L23.8 5.3c1.1-1.6.6-3.7-1-4.7zm14.6 0c-1.5-1-3.6-.6-4.6 1v.1L9.7 38c-1 1.6-.6 3.7 1 4.8 1.5 1 3.6.6 4.7-1v-.1l23-36.4c1-1.6.6-3.7-1-4.7zm14.5 0c-1.5-1-3.6-.6-4.6 1l-.1.1-36.1 57c-1 1.6-.6 3.7 1 4.8 1.5 1 3.6.6 4.6-1 0 0 0-.1.1-.1L52.9 5.3c1-1.6.6-3.7-1-4.7zm1.4 20.8c-1.5-1-3.6-.6-4.6 1v.1l-23 36.2c-1 1.6-.6 3.7 1 4.8 1.6 1 3.7.6 4.7-1l22.9-36.3c1-1.7.5-3.8-1-4.8zm6.9 12c-1.5-1-3.6-.6-4.6.9v.1L40.1 58.7c-1 1.6-.6 3.7 1 4.8 1.5 1 3.6.6 4.6-1v-.1L61 38.2c1.2-1.6.7-3.8-.8-4.8z" style="fill-rule:evenodd;clip-rule:evenodd;fill:#559afa"/>
</svg>

<svg version="1.1" xmlns="http://www.w3.org/2000/svg" x="0px" y="0px" viewBox="0 0 64 64" style="enable-background:new 0 0 64 64" xml:space="preserve" height="1em" width="1em">
  <g>
    <path d="M22.8,0.6c-1.5-1-3.6-0.6-4.6,0.9c0,0,0,0.1-0.1,0.1L2.8,25.8c-1,1.6-0.6,3.7,1,4.8c1.5,1,3.6,0.6,4.6-1 c0,0,0,0,0.1-0.1L23.8,5.3C24.9,3.7,24.4,1.6,22.8,0.6z M37.4,0.6c-1.5-1-3.6-0.6-4.6,1c0,0,0,0,0,0.1L9.7,38c-1,1.6-0.6,3.7,1,4.8 c1.5,1,3.6,0.6,4.7-1c0,0,0-0.1,0-0.1l23-36.4C39.4,3.7,39,1.6,37.4,0.6z M51.9,0.6c-1.5-1-3.6-0.6-4.6,1c0,0,0,0-0.1,0.1 L11.1,58.7c-1,1.6-0.6,3.7,1,4.8c1.5,1,3.6,0.6,4.6-1c0,0,0-0.1,0.1-0.1L52.9,5.3C53.9,3.7,53.5,1.6,51.9,0.6z M53.3,21.4 c-1.5-1-3.6-0.6-4.6,1c0,0,0,0.1,0,0.1L25.7,58.7c-1,1.6-0.6,3.7,1,4.8c1.6,1,3.7,0.6,4.7-1l22.9-36.3 C55.3,24.5,54.8,22.4,53.3,21.4z M60.2,33.4c-1.5-1-3.6-0.6-4.6,0.9c0,0,0,0.1,0,0.1L40.1,58.7c-1,1.6-0.6,3.7,1,4.8 c1.5,1,3.6,0.6,4.6-1c0,0,0,0,0-0.1l15.3-24.2C62.2,36.6,61.7,34.4,60.2,33.4z" style="fill-rule:evenodd;clip-rule:evenodd;fill:#559AFA"/>
  </g>
</svg>
